X: 37675
T: Snowy-Breasted Pearl, The
R: waltz
M: 3/4
K: Dmajor
F|d4 (dB)|A3 G FE|D4 (FD)|(E2 B,2) C2|
D4 (GF)|(G2 A2) (Bc)|d4 e2|(d2 cB) A2|(B2 F2) ^A2|B4 (3ABc|
d4 (ed)|(d3 c) (BA)|(B2 A2) (FA)|A4 (3ABc|
(d2 c2) (dB)|A3 G FE|D4 (FD)|B,3 A,B,C|D4 z2||

